images/icons/viber.svg

<svg width="24" height="24" viewBox="0 0 24 24" fill="none" xmlns="http://www.w3.org/2000/svg">
<path d="M15.6439 11.404C15.6559 9.91197 14.4249 8.54396 12.8999 8.35496L12.7999 8.33996C12.7235 8.32478 12.6458 8.31608 12.5679 8.31396C12.2549 8.31396 12.1719 8.53996 12.1499 8.67496C12.1374 8.73103 12.1363 8.78903 12.1466 8.84554C12.1569 8.90204 12.1785 8.95591 12.2099 9.00396C12.3139 9.14896 12.4959 9.17396 12.6419 9.19596C12.6849 9.20196 12.7259 9.20696 12.7589 9.21596C14.1299 9.53096 14.5919 10.028 14.8169 11.431C14.8229 11.466 14.8249 11.508 14.8269 11.553C14.8369 11.72 14.8579 12.069 15.2219 12.069C15.2519 12.069 15.2839 12.067 15.3179 12.061C15.6569 12.008 15.6459 11.689 15.6409 11.536C15.6389 11.493 15.6379 11.452 15.6409 11.425C15.642 11.4183 15.6427 11.4117 15.6429 11.405L15.6439 11.404Z" fill="black"/>
<path d="M12.4804 7.80689C12.5204 7.80989 12.5604 7.81289 12.5914 7.81789C14.8414 8.17589 15.8774 9.27589 16.1644 11.6179C16.1694 11.6579 16.1694 11.7059 16.1704 11.7579C16.1734 11.9409 16.1794 12.3209 16.5754 12.3289H16.5874C16.6417 12.3318 16.6961 12.323 16.7468 12.3032C16.7975 12.2833 16.8434 12.2529 16.8814 12.2139C17.0044 12.0809 16.9964 11.8839 16.9894 11.7239C16.9874 11.6859 16.9854 11.6489 16.9864 11.6169C17.0144 9.22189 15.0064 7.04989 12.6884 6.96989L12.6604 6.97089C12.6514 6.97221 12.6424 6.97287 12.6334 6.97289C12.6104 6.97289 12.5814 6.97089 12.5514 6.96889C12.5154 6.96589 12.4734 6.96289 12.4314 6.96289C12.0624 6.96289 11.9924 7.23289 11.9834 7.39489C11.9634 7.76789 12.3124 7.79489 12.4804 7.80689ZM16.0554 14.6439C16.0072 14.6062 15.9595 14.5678 15.9124 14.5289C15.6664 14.3249 15.4044 14.1369 15.1524 13.9549C15.0996 13.917 15.047 13.879 14.9944 13.8409C14.6704 13.6069 14.3794 13.4919 14.1044 13.4919C13.7344 13.4919 13.4114 13.7039 13.1444 14.1209C13.0264 14.3049 12.8824 14.3949 12.7064 14.3949C12.5835 14.3905 12.463 14.3595 12.3534 14.3039C11.3084 13.8139 10.5614 13.0639 10.1344 12.0739C9.92837 11.5939 9.99437 11.2819 10.3584 11.0269C10.5644 10.8829 10.9484 10.6139 10.9214 10.0989C10.8914 9.51389 9.64037 7.75389 9.11337 7.55389C8.88856 7.46905 8.64066 7.46834 8.41537 7.55189C7.81037 7.76189 7.37537 8.13189 7.15837 8.61889C6.94837 9.09089 6.95837 9.64389 7.18637 10.2199C7.84337 11.8859 8.76637 13.3379 9.93237 14.5359C11.0724 15.7089 12.4744 16.6689 14.0984 17.3909C14.2444 17.4559 14.3984 17.4909 14.5104 17.5169L14.6054 17.5409C14.6184 17.5446 14.6318 17.5466 14.6454 17.5469H14.6584C15.4224 17.5469 16.3394 16.8269 16.6214 16.0049C16.8684 15.2849 16.4174 14.9299 16.0554 14.6449V14.6439ZM12.8184 9.70989C12.6884 9.71289 12.4154 9.71989 12.3194 10.0059C12.2754 10.1399 12.2804 10.2559 12.3354 10.3509C12.4164 10.4909 12.5724 10.5339 12.7134 10.5569C13.2254 10.6419 13.4894 10.9349 13.5414 11.4769C13.5664 11.7309 13.7314 11.9069 13.9434 11.9069C13.9594 11.9072 13.9754 11.9066 13.9914 11.9049C14.2464 11.8729 14.3694 11.6799 14.3584 11.3299C14.3624 10.9639 14.1774 10.5499 13.8624 10.2199C13.5464 9.88789 13.1654 9.70089 12.8184 9.70989Z" fill="black"/>
<path d="M6 4C5.46957 4 4.96086 4.21071 4.58579 4.58579C4.21071 4.96086 4 5.46957 4 6V18C4 18.5304 4.21071 19.0391 4.58579 19.4142C4.96086 19.7893 5.46957 20 6 20H18C18.5304 20 19.0391 19.7893 19.4142 19.4142C19.7893 19.0391 20 18.5304 20 18V6C20 5.46957 19.7893 4.96086 19.4142 4.58579C19.0391 4.21071 18.5304 4 18 4H6ZM6 2H18C19.0609 2 20.0783 2.42143 20.8284 3.17157C21.5786 3.92172 22 4.93913 22 6V18C22 19.0609 21.5786 20.0783 20.8284 20.8284C20.0783 21.5786 19.0609 22 18 22H6C4.93913 22 3.92172 21.5786 3.17157 20.8284C2.42143 20.0783 2 19.0609 2 18V6C2 4.93913 2.42143 3.92172 3.17157 3.17157C3.92172 2.42143 4.93913 2 6 2V2Z" fill="black"/>
</svg>

<svg width="24" height="24" fill="none" xmlns="http://www.w3.org/2000/svg"><path d="M15.644 11.404c.012-1.492-1.22-2.86-2.744-3.049l-.1-.015a1.384 1.384 0 00-.232-.026c-.313 0-.396.226-.418.361a.43.43 0 00.06.329c.104.145.286.17.432.192.043.006.084.011.117.02 1.37.315 1.833.812 2.058 2.215.006.035.008.077.01.122.01.167.03.516.395.516.03 0 .062-.002.096-.008.339-.053.328-.372.323-.525a.813.813 0 01.002-.131v-.001z" fill="#000"/><path d="M12.48 7.807c.04.003.08.006.111.01 2.25.359 3.286 1.459 3.573 3.8.005.04.005.089.006.14.003.184.01.564.405.572h.012a.382.382 0 00.294-.115c.123-.133.115-.33.108-.49-.002-.038-.004-.075-.003-.107.028-2.395-1.98-4.567-4.298-4.647h-.028a.189.189 0 01-.027.003c-.023 0-.052-.002-.082-.004a1.459 1.459 0 00-.12-.006c-.369 0-.439.27-.448.432-.02.373.33.4.497.412zm3.575 6.837a6.91 6.91 0 01-.143-.115c-.246-.204-.508-.392-.76-.574a45.318 45.318 0 01-.158-.114c-.324-.234-.615-.35-.89-.35-.37 0-.693.213-.96.63-.118.184-.262.274-.438.274a.847.847 0 01-.353-.091c-1.045-.49-1.792-1.24-2.219-2.23-.206-.48-.14-.792.224-1.047.206-.144.59-.413.563-.928-.03-.585-1.28-2.345-1.808-2.545a.996.996 0 00-.698-.002c-.605.21-1.04.58-1.257 1.067-.21.472-.2 1.025.028 1.6.657 1.667 1.58 3.119 2.746 4.317 1.14 1.173 2.542 2.133 4.166 2.855.146.065.3.1.412.126l.095.024a.159.159 0 00.04.006h.013c.764 0 1.681-.72 1.963-1.542.247-.72-.204-1.075-.566-1.36v-.001zM12.818 9.71c-.13.003-.403.01-.499.296-.044.134-.039.25.016.345.081.14.237.183.378.206.512.085.776.378.828.92.025.254.19.43.402.43.016 0 .032 0 .048-.002.255-.032.378-.225.367-.575.004-.366-.18-.78-.496-1.11-.316-.332-.697-.52-1.044-.51z" fill="#000"/><path d="M6 4a2 2 0 00-2 2v12a2 2 0 002 2h12a2 2 0 002-2V6a2 2 0 00-2-2H6zm0-2h12a4 4 0 014 4v12a4 4 0 01-4 4H6a4 4 0 01-4-4V6a4 4 0 014-4z" fill="#000"/></svg>
